ui/public/logo.svg

<svg xmlns="http://www.w3.org/2000/svg" width="200" height="200" viewBox="0 0 216.926 216.926"><svg width="216.926" height="216.926" viewBox="0 0 216.926 216.926"><g fill="#f97317" stroke="transparent"><path d="M0 108.463C0 48.561 48.561 0 108.463 0s108.463 48.561 108.463 108.463-48.561 108.463-108.463 108.463S0 168.365 0 108.463zm108.463 103.316c57.06 0 103.316-46.256 103.316-103.316S165.523 5.147 108.463 5.147 5.147 51.403 5.147 108.463s46.256 103.316 103.316 103.316z"/><circle cx="108.463" cy="108.463" r="107.378" stroke="none"/></g><svg width="88.848" height="128.827" transform="translate(64.039 44.05)" viewBox="0 0 88.848 128.827"><svg xmlns="http://www.w3.org/2000/svg" width="88.848" height="128.827" viewBox="5 13.445 56.297 81.629"><path fill="#fff" d="M58.482 47.222h-2.815V35.963c0-12.436-10.08-22.518-22.519-22.518S10.63 23.528 10.63 35.963v11.259H7.815A2.813 2.813 0 0 0 5 50.037v42.222a2.813 2.813 0 0 0 2.815 2.815h50.667a2.813 2.813 0 0 0 2.815-2.815V50.037a2.815 2.815 0 0 0-2.815-2.815M35.963 72.039V86.63h-5.63V72.039c-3.271-1.163-5.63-4.255-5.63-7.928a8.445 8.445 0 0 1 16.888 0c.002 3.673-2.357 6.765-5.628 7.928m11.259-24.817H19.074V35.963c0-7.76 6.314-14.074 14.074-14.074s14.074 6.314 14.074 14.074z"/></svg></svg></svg></svg>

<svg xmlns="http://www.w3.org/2000/svg" viewBox="0 0 216.92591302712353 216.92591302712353" height="216.92591302712353" width="216.92591302712353"><g><svg /></g><g id="icon-0"><svg viewBox="0 0 216.92591302712353 216.92591302712353" height="216.92591302712353" width="216.92591302712353"><g><path d="M0 108.463c0-59.902 48.561-108.463 108.463-108.463 59.902 0 108.463 48.561 108.463 108.463 0 59.902-48.561 108.463-108.463 108.463-59.902 0-108.463-48.561-108.463-108.463zM108.463 211.779c57.06 0 103.316-46.256 103.316-103.316 0-57.06-46.256-103.316-103.316-103.316-57.06 0-103.316 46.256-103.316 103.316 0 57.06 46.256 103.316 103.316 103.316z" data-fill-palette-color="accent" fill="#f97317" stroke="transparent" /><ellipse rx="107.37832694842615" ry="107.37832694842615" cx="108.46295651356176" cy="108.46295651356176" fill="#f97317" stroke="transparent" stroke-width="0" fill-opacity="1" data-fill-palette-color="accent" /></g><g transform="matrix(1,0,0,1,64.03903745467258,44.049576960135155)"><svg viewBox="0 0 88.84783811777835 128.82675910685322" height="128.82675910685322" width="88.84783811777835"><g><svg xmlns="http://www.w3.org/2000/svg" xmlns:xlink="http://www.w3.org/1999/xlink" version="1.1" x="0" y="0" viewBox="4.99999928747888 13.445 56.29700142504224 81.6290007125211"
enable-background="new 0 0 100 100" xml:space="preserve" height="128.82675910685322" width="88.84783811777835" class="icon-dxe-0" data-fill-palette-color="quaternary" id="dxe-0"><path d="M58.482 47.222H55.667V35.963C55.667 23.527 45.587 13.445 33.148 13.445S10.63 23.528 10.63 35.963V47.222H7.815A2.813 2.813 0 0 0 5 50.037V92.259A2.813 2.813 0 0 0 7.815 95.074H58.482A2.813 2.813 0 0 0 61.297 92.259V50.037A2.815 2.815 0 0 0 58.482 47.222M35.963 72.039V86.63H30.333V72.039C27.062 70.876 24.703 67.784 24.703 64.111A8.445 8.445 0 0 1 41.591 64.111C41.593 67.784 39.234 70.876 35.963 72.039M47.222 47.222H19.074V35.963C19.074 28.203 25.388 21.889 33.148 21.889S47.222 28.203 47.222 35.963z" fill="#ffffff" data-fill-palette-color="quaternary" /></svg></g></svg></g></svg></g></svg>
